X: 167
T:Benedicite, omnia opera
N: Derived from Jos1402-Benedicite_omnia_opera.krn
C: Josquin des Prez
%%abc-version 2.0
%%abcx-abcm2ps-target-version 5.9.1 (29 Sep 2008)
%%abc-creator hum2abc beta
%%abcx-conversion-date 2019/02/12 16:15:46
%%abc-edited-by Jesse Rodin
%%abc-edited-by Victoria Chang
%%abcx-initial-encoding-date 2011/02/21/
%%humdrum-veritas 2784337880
%%humdrum-veritas-data 3257059831
%%linebreak <none>
%%barnumbers 0
L: 1/4
M: 2/1
Q: 1/2=120
%%staves [1 2 3 4]
V: 1 clef=treble
V: 2 clef=treble-8
V: 3 clef=treble-8
V: 4 clef=bass
K: F
[V:1] c8 | 
[V:2] z4f4- | 
[V:3] z8 | 
[V:4] z8 | 
[V:1] A4B4- | 
[V:2] f4d4 | 
[V:3] z8 | 
[V:4] z8 | 
[V:1] B4G4 | 
[V:2] e8 | 
[V:3] z4c4- | 
[V:4] z8 | 
[V:1] A8 | 
[V:2] c4d4- | 
[V:3] c4A4 | 
[V:4] F,8 | 
[V:1] F4G4- | 
[V:2] d4B4 | 
[V:3] B8 | 
[V:4] D,4E,4- | 
[V:1] G4E4 | 
[V:2] c6BA | 
[V:3] G4A4- | 
[V:4] E,4C,4 | 
[V:1] F8 | 
[V:2] A2GFf4- | 
[V:3] A4F4 | 
[V:4] D,8 | 
[V:1] c6BA | 
[V:2] f2ede2f2 | 
[V:3] G6AB | 
[V:4] !fermata!C,8- | 
[V:1] !fermata!G8 | 
[V:2] !fermata!e8 | 
[V:3] !fermata!c8 | 
[V:4] C,8 | 
[V:1] A8 | 
[V:2] f8 | 
[V:3] c8 | 
[V:4] F,8 | 
[V:1] G4G4 | 
[V:2] d4e4 | 
[V:3] B4c4 | 
[V:4] G,4C,4 | 
[V:1] z2A4G2 | 
[V:2] z2f4e2 | 
[V:3] A4B4 | 
[V:4] F,4G,4 | 
[V:1] A4B4 | 
[V:2] f4g4 | 
[V:3] c4d4 | 
[V:4] F,4B,4 | 
[V:1] A2A2G2G2 | 
[V:2] f2f2e2e2 | 
[V:3] c2c2B2B2 | 
[V:4] F,2F,2G,2G,2 | 
[V:1] A8 | 
[V:2] f4c4 | 
[V:3] c4z4 | 
[V:4] F,8 | 
[V:1] z8 | 
[V:2] A4F4 | 
[V:3] z4c4 | 
[V:4] C4A,4 | 
[V:1] c4A4 | 
[V:2] z2f4f2 | 
[V:3] A4F4 | 
[V:4] F,4z4 | 
[V:1] F4A4 | 
[V:2] f4f2f2- | 
[V:3] c4c2c2- | 
[V:4] F,4F,2F,2- | 
[V:1] A2A4A2 | 
[V:2] f2f2f4 | 
[V:3] c2c2c2c2 | 
[V:4] F,2F,2F,2F,2 | 
[V:1] A2A2A4 | 
[V:2] z2f4ed | 
[V:3] c4c4- | 
[V:4] F,4F,4- | 
[V:1] z2A2G2A2 | 
[V:2] cFf3eed | 
[V:3] c8 | 
[V:4] F,4C,4 | 
[V:1] B4A2G2- | 
[V:2] f4e4 | 
[V:3] d4c4 | 
[V:4] B,,4C,4 | 
[V:1] GFF4E2 | 
[V:2] d2d2c4 | 
[V:3] A2B2G4 | 
[V:4] D,2B,,2C,4 | 
[V:1] F8 | 
[V:2] A3Bc2d2- | 
[V:3] F8 | 
[V:4] F,4z4 | 
[V:1] z8 | 
[V:2] dcBAG4 | 
[V:3] z4c4 | 
[V:4] G,4E,4 | 
[V:1] z8 | 
[V:2] z4g4 | 
[V:3] A4B4 | 
[V:4] F,4G,4 | 
[V:1] c4A4 | 
[V:2] e4f4 | 
[V:3] c4F4 | 
[V:4] C,4z4 | 
[V:1] B4c4 | 
[V:2] g4c4 | 
[V:3] z4c4 | 
[V:4] G,4A,2A,2 | 
[V:1] F4z2c2- | 
[V:2] z2f2g2e2 | 
[V:3] d2d2e3d | 
[V:4] B,3A,G,2A,2- | 
[V:1] c2A2d4 | 
[V:2] a4f2d2 | 
[V:3] c2d4B2 | 
[V:4] A,2F,2D,2G,2- | 
[V:1] B2G2c3B | 
[V:2] g3fedc2 | 
[V:3] G2c3BAG | 
[V:4] G,F,E,D,C,4 | 
[V:1] AGF2z2f2 | 
[V:2] c2d3cBA | 
[V:3] F4z4 | 
[V:4] z4D,4 | 
[V:1] g3f/e/dcc2- | 
[V:2] G2g2f2e2 | 
[V:3] z8 | 
[V:4] E,4F,4 | 
[V:1] c2=B2c4- | 
[V:2] d4c4 | 
[V:3] d4e4 | 
[V:4] G,4C,4 | 
[V:1] c4z4 | 
[V:2] z8 | 
[V:3] f4g4 | 
[V:4] z4G,4 | 
[V:1] z8 | 
[V:2] z4d4 | 
[V:3] c4z4 | 
[V:4] A,4B,4 | 
[V:1] G4A4 | 
[V:2] e4f4 | 
[V:3] z8 | 
[V:4] C4F,4 | 
[V:1] B4c4 | 
[V:2] g4c4 | 
[V:3] G4A4 | 
[V:4] z4F,3E, | 
[V:1] F4z2c2- | 
[V:2] z2f4e2 | 
[V:3] B4c4 | 
[V:4] D,2D,2C,4 | 
[V:1] c2A4B2- | 
[V:2] f2c2d3c | 
[V:3] F2f4d2- | 
[V:4] F,3E,D,2G,2- | 
[V:1] B2G2G4 | 
[V:2] BAc3BAG | 
[V:3] d2e4c2 | 
[V:4] G,2C,2C3B, | 
[V:1] z2c3BAG | 
[V:2] FGA2F2c2 | 
[V:3] c4f3e | 
[V:4] A,G,F,2z2F,2- | 
[V:1] A2B2A2B2- | 
[V:2] F4z2f2- | 
[V:3] dcd2c2d2- | 
[V:4] F,2B,,2F,2D,2 | 
[V:1] BAA4G2 | 
[V:2] f2f2d2e2 | 
[V:3] dcc2B2AG | 
[V:4] F,4G,4 | 
[V:1] A4z2c2 | 
[V:2] f4z4 | 
[V:3] F8 | 
[V:4] z2C3B,A,G, | 
[V:1] c2A2B2G2 | 
[V:2] f2f2d2e2 | 
[V:3] z4z2c2 | 
[V:4] F,4z4 | 
[V:1] z8 | 
[V:2] c2z2z4 | 
[V:3] c2A2B2G2 | 
[V:4] F,2F,2D,2E,2 | 
[V:1] c4A2B2 | 
[V:2] z2f4d2 | 
[V:3] z8 | 
[V:4] C,2z2z4 | 
[V:1] G2z2z4 | 
[V:2] e2c2z4 | 
[V:3] c4A2B2 | 
[V:4] z2F,4D,2 | 
[V:1] z2c4A2 | 
[V:2] z4f4 | 
[V:3] G2z2z4 | 
[V:4] E,2C,2z4 | 
[V:1] B2c2A2d2- | 
[V:2] d2e2f2d2 | 
[V:3] z8 | 
[V:4] z8 | 
[V:1] d2B2c2d2- | 
[V:2] g4e2f2 | 
[V:3] z8 | 
[V:4] z8 | 
[V:1] dcBAG4 | 
[V:2] g3fedc2 | 
[V:3] z4z2c2- | 
[V:4] z8 | 
[V:1] A4z4 | 
[V:2] z8 | 
[V:3] c2A2B2c2 | 
[V:4] F,4D,2E,2 | 
[V:1] z8 | 
[V:2] z8 | 
[V:3] A2d4B2 | 
[V:4] F,2D,2G,4 | 
[V:1] z8 | 
[V:2] z8 | 
[V:3] c2d3cBA | 
[V:4] E,2F,2G,3F, | 
[V:1] z8 | 
[V:2] z2c4A2 | 
[V:3] G4z4 | 
[V:4] E,D,C,4F,2 | 
[V:1] z2c4A2 | 
[V:2] B2A2F4 | 
[V:3] z8 | 
[V:4] G,2F,3G,A,F, | 
[V:1] B2A2F4 | 
[V:2] z4F2c2 | 
[V:3] z2c4A2 | 
[V:4] G,2F,2z4 | 
[V:1] z8 | 
[V:2] d2e2f2c2 | 
[V:3] B2A2F4 | 
[V:4] z2C4A,2 | 
[V:1] z2A4A2 | 
[V:2] d2e2f4 | 
[V:3] z2c4c2 | 
[V:4] B,2A,2F,4 | 
[V:1] A2A2A4- | 
[V:2] f2f2f2f2 | 
[V:3] c2c2c4- | 
[V:4] F,2F,2F,2F,2 | 
[V:1] A4B3B | 
[V:2] f4f3f | 
[V:3] c4d3d | 
[V:4] F,4B,,3B,, | 
[V:1] A2G4F2 | 
[V:2] f2d2e2c2- | 
[V:3] c2B4A2 | 
[V:4] F,2G,2E,2F,2 | 
[V:1] E2F3DED | 
[V:2] cBBAc4 | 
[V:3] G2F2G4 | 
[V:4] C,2D,2C,4 | 
[V:1] F8 | 
[V:2] z4c4- | 
[V:3] F8 | 
[V:4] z8 | 
[V:1] z8 | 
[V:2] c4c4 | 
[V:3] z8 | 
[V:4] F,8 | 
[V:1] z8 | 
[V:2] d4e4 | 
[V:3] z8 | 
[V:4] F,4G,4 | 
[V:1] c8 | 
[V:2] c4z4 | 
[V:3] z4f4- | 
[V:4] A,4F,4 | 
[V:1] c4d4 | 
[V:2] z8 | 
[V:3] f4f4 | 
[V:4] z8 | 
[V:1] e4c4 | 
[V:2] z4f4- | 
[V:3] g4a4 | 
[V:4] z8 | 
[V:1] z8 | 
[V:2] f4d4 | 
[V:3] f4z4 | 
[V:4] B,8 | 
[V:1] z4c4- | 
[V:2] e4c4 | 
[V:3] z8 | 
[V:4] G,4A,4 | 
[V:1] c4A4 | 
[V:2] z8 | 
[V:3] f8 | 
[V:4] F,4z4 | 
[V:1] B4G4 | 
[V:2] z4z2c2- | 
[V:3] d4e4 | 
[V:4] z2G,4F,E, | 
[V:1] z8 | 
[V:2] c2BAB2B2 | 
[V:3] c2f4ed | 
[V:4] F,E,D,C,D,2D,2 | 
[V:1] z2c4BA | 
[V:2] c4z4 | 
[V:3] e2f3edc | 
[V:4] C,2F,3G,A,2 | 
[V:1] B2B2c4- | 
[V:2] z2g4e2 | 
[V:3] d2d2c4- | 
[V:4] G,4C,4 | 
[V:1] c4z4 | 
[V:2] f2e2c4 | 
[V:3] c4z2c2- | 
[V:4] z2C4A,2 | 
[V:1] z4c4 | 
[V:2] z4z2c2- | 
[V:3] c2A2c2A2 | 
[V:4] C2A,2F,4 | 
[V:1] A2c2A2F2 | 
[V:2] c2A2c2A2 | 
[V:3] F2f3edc | 
[V:4] z2F,4F,2 | 
[V:1] z2f4e2 | 
[V:2] F4G4 | 
[V:3] B4c4 | 
[V:4] D,4C,4 | 
[V:1] f3e/d/c2B2 | 
[V:2] A3Bc2d2- | 
[V:3] d3ef2g2- | 
[V:4] F,3G,A,2B,2- | 
[V:1] z2d4cB | 
[V:2] dcBAB4 | 
[V:3] gff4e2 | 
[V:4] B,A,G,F,G,2G,2 | 
[V:1] A2B2A4- | 
[V:2] c2B2c2f2- | 
[V:3] f3e/d/c2d2- | 
[V:4] F,2B,,2F,2D,2 | 
[V:1] A2F2B4 | 
[V:2] f2f2f3g | 
[V:3] d2c2d4 | 
[V:4] F,4B,,4 | 
[V:1] A8 | 
[V:2] f8 | 
[V:3] c8 | 
[V:4] F,8 | 
[V:1] c4d4 | 
[V:2] z4f4 | 
[V:3] z8 | 
[V:4] z8 | 
[V:1] B4c4 | 
[V:2] g4e4 | 
[V:3] z4c4 | 
[V:4] G,4A,4 | 
[V:1] A4z4 | 
[V:2] f4d4 | 
[V:3] d4B4 | 
[V:4] F,4G,4 | 
[V:1] z4z2c2- | 
[V:2] z4c4 | 
[V:3] c4A4 | 
[V:4] C,4z4 | 
[V:1] c2A4c2- | 
[V:2] A4c4 | 
[V:3] z2c4A2- | 
[V:4] C4A,4 | 
[V:1] c2F4c2- | 
[V:2] F4c4 | 
[V:3] A2c4F2- | 
[V:4] C4F,4 | 
[V:1] c2B2A4 | 
[V:2] A2A2z2f2- | 
[V:3] F2c4F2 | 
[V:4] F,4F,2E,2 | 
[V:1] z2f4ed | 
[V:2] fedcBcdB | 
[V:3] F8 | 
[V:4] D,8 | 
[V:1] e8 | 
[V:2] c4z4 | 
[V:3] G8- | 
[V:4] C,8- | 
[V:1] z4c4- | 
[V:2] c6B2 | 
[V:3] G8 | 
[V:4] C,8 | 
[V:1] c2B2A2G2 | 
[V:2] A2G2F4 | 
[V:3] c6B2 | 
[V:4] z4C4- | 
[V:1] F2G2A4 | 
[V:2] z4c4 | 
[V:3] A2G2F4 | 
[V:4] C2B,2A,2G,2 | 
[V:1] z4G4 | 
[V:2] c4B4- | 
[V:3] z4d4 | 
[V:4] F,4G,4 | 
[V:1] G2G4G2 | 
[V:2] B2B2B4 | 
[V:3] d2d4d2 | 
[V:4] G,2G,4G,2 | 
[V:1] G4G4 | 
[V:2] B4B4 | 
[V:3] d4d4 | 
[V:4] G,4G,4 | 
[V:1] G2G4E2 | 
[V:2] B6G2 | 
[V:3] d2d4c2 | 
[V:4] G,2G,4C,2 | 
[V:1] E2c4BA | 
[V:2] G8 | 
[V:3] c3de2c2- | 
[V:4] C,8- | 
[V:1] BAGFE4 | 
[V:2] c8- | 
[V:3] c2BAG4 | 
[V:4] C,8 | 
[V:1] F8 | 
[V:2] c8 | 
[V:3] F8- | 
[V:4] z4A,3B, | 
[V:1] z8 | 
[V:2] z4A3B | 
[V:3] F8- | 
[V:4] C2D2CB,A,G, | 
[V:1] z8 | 
[V:2] c2d2cBAG | 
[V:3] F4A3B | 
[V:4] F,8 | 
[V:1] z4A3B | 
[V:2] F8 | 
[V:3] c2d2cBAG | 
[V:4] z8 | 
[V:1] c2d2cBAG | 
[V:2] z8 | 
[V:3] F8 | 
[V:4] z4C4 | 
[V:1] F8 | 
[V:2] z4c4 | 
[V:3] z8 | 
[V:4] A,2B,2A,2F,2- | 
[V:1] z8 | 
[V:2] A2B2A2F2 | 
[V:3] z8 | 
[V:4] F,2G,3F,F,2- | 
[V:1] z8 | 
[V:2] G2G2FGAB | 
[V:3] z4c4 | 
[V:4] F,2E,2F,4- | 
[V:1] z4c4 | 
[V:2] c2d2c2f2- | 
[V:3] A2B2A2F2 | 
[V:4] F,2B,,2F,4 | 
[V:1] A2B2A2F2- | 
[V:2] f2e2f2c2 | 
[V:3] G2G2F4 | 
[V:4] z4z2F,2 | 
[V:1] F2G3FF2- | 
[V:2] d2G2A2B2 | 
[V:3] B4A2F2 | 
[V:4] D,2E,2F,2D,2 | 
[V:1] F2E2F2A2- | 
[V:2] c2BAA2f2- | 
[V:3] G4F2c2- | 
[V:4] C,4z2F,2- | 
[V:1] A2G2A2G2 | 
[V:2] f2e2f2e2 | 
[V:3] c2B2c2B2 | 
[V:4] F,2G,2F,2G,2 | 
[V:1] A4z2B2 | 
[V:2] f4d4 | 
[V:3] c4B4 | 
[V:4] F,4G,4 | 
[V:1] G2A4F2- | 
[V:2] e4d4 | 
[V:3] c4A4 | 
[V:4] C,4D,4 | 
[V:1] F2G3FED | 
[V:2] d4c2BA | 
[V:3] B4G4 | 
[V:4] B,,4C,4- | 
[V:1] E4z2F2- | 
[V:2] G4d3c | 
[V:3] c4A4 | 
[V:4] C,4D,4 | 
[V:1] F2F2c4 | 
[V:2] def4e2 | 
[V:3] B4G4 | 
[V:4] B,,4C,4 | 
[V:1] cBAGA2B2- | 
[V:2] f4z2f2- | 
[V:3] A3Bc2d2- | 
[V:4] F,2E,D,C,2B,,2 | 
[V:1] BAA3GG2 | 
[V:2] f2f2d2e2 | 
[V:3] dcc2B4 | 
[V:4] F,4G,4 | 
[V:1] A2DEFGA2- | 
[V:2] f3ed2c2 | 
[V:3] A4A3G | 
[V:4] D,3C,D,E,F,2- | 
[V:1] A2GFEDG2- | 
[V:2] f4g2c2 | 
[V:3] ABc3BG2 | 
[V:4] F,2E,D,C,2E,2 | 
[V:1] GFF4E2 | 
[V:2] d4c4 | 
[V:3] A2B2G4 | 
[V:4] D,2B,,2C,4 | 
[V:1] F4z4 | 
[V:2] z2A4F2 | 
[V:3] F4z2c2- | 
[V:4] z2C4C2 | 
[V:1] z2c4c2 | 
[V:2] F4z2c2- | 
[V:3] c2c2A2A2 | 
[V:4] A,2A,2F,4 | 
[V:1] A4z4 | 
[V:2] c2c2A2A2 | 
[V:3] F4z4 | 
[V:4] z2F,3E,F,G, | 
[V:1] z8 | 
[V:2] F4z2F2 | 
[V:3] c4d4 | 
[V:4] A,2F,4D,2 | 
[V:1] c4d4 | 
[V:2] G2A2B2d2- | 
[V:3] z8 | 
[V:4] E,2F,2B,,2B,2- | 
[V:1] z4c4 | 
[V:2] dcBAG4 | 
[V:3] d4e2e2 | 
[V:4] B,A,G,F,E,4 | 
[V:1] d2d2e4 | 
[V:2] A2B2AGG2- | 
[V:3] f4z2c2- | 
[V:4] D,2B,,2C,2E,2 | 
[V:1] f4e2d2- | 
[V:2] G2F2G2B2 | 
[V:3] c2B2c2d2 | 
[V:4] D,4C,2G,2- | 
[V:1] dcc4=B2 | 
[V:2] A4z2G2- | 
[V:3] e2f2d4 | 
[V:4] G,2F,2G,4 | 
[V:1] c4z2F2 | 
[V:2] G2c2B3A | 
[V:3] c2GABcd2- | 
[V:4] C,D,E,F,G,A,B,2- | 
[V:1] G2A2B4 | 
[V:2] GFf4e2 | 
[V:3] d2c4B2 | 
[V:4] B,A,G,F,G,4 | 
[V:1] A8- | 
[V:2] f4z4 | 
[V:3] c8 | 
[V:4] F,4z2C,2 | 
[V:1] A8- | 
[V:2] z2c2f3e | 
[V:3] z8 | 
[V:4] F,3E,D,2C,2 | 
[V:1] A8 | 
[V:2] d2c2f4 | 
[V:3] z8 | 
[V:4] F,8 | 
[V:1] z4z2G2 | 
[V:2] e8- | 
[V:3] z2G2c3B | 
[V:4] C,8- | 
[V:1] c3BA2G2 | 
[V:2] e8 | 
[V:3] A2G2c4 | 
[V:4] C,8- | 
[V:1] c4G4 | 
[V:2] e8 | 
[V:3] G4z2c2- | 
[V:4] C,8 | 
[V:1] z8 | 
[V:2] z4f4 | 
[V:3] c2c2A2d2- | 
[V:4] F,4F,2D,2- | 
[V:1] B4B2G2- | 
[V:2] f2d4g2- | 
[V:3] d2G2G4 | 
[V:4] D,2G,4C,2 | 
[V:1] G2c4A2 | 
[V:2] g2c2c4 | 
[V:3] z2g4c2 | 
[V:4] C,4z2F,2- | 
[V:1] A4B4 | 
[V:2] f2f2d4- | 
[V:3] c4z2B2- | 
[V:4] F,2F,2G,4 | 
[V:1] B4G4 | 
[V:2] d2d2e4- | 
[V:3] B2B2c4 | 
[V:4] G,4C,4- | 
[V:1] G4A4 | 
[V:2] e4z4 | 
[V:3] c4F4 | 
[V:4] C,4z4 | 
[V:1] z4B4 | 
[V:2] f4d4 | 
[V:3] z4B4 | 
[V:4] F,4G,4 | 
[V:1] G4A4 | 
[V:2] e4z4 | 
[V:3] c4F4 | 
[V:4] C,4z4 | 
[V:1] z4B4 | 
[V:2] f4d4 | 
[V:3] z4B4 | 
[V:4] F,4G,4 | 
[V:1] G4A4 | 
[V:2] e4z4 | 
[V:3] c4F4 | 
[V:4] C,4z4 | 
[V:1] z4B4 | 
[V:2] f4d4 | 
[V:3] z4B4 | 
[V:4] F,4G,4 | 
[V:1] G4A4 | 
[V:2] e4f2e2 | 
[V:3] c4F2c2- | 
[V:4] C,4z4 | 
[V:1] z8 | 
[V:2] f4z4 | 
[V:3] c2A2F2G2 | 
[V:4] F,4D,2B,,2 | 
[V:1] c2A2F2G2 | 
[V:2] z2f2d2B2 | 
[V:3] A2z2z4 | 
[V:4] C,2D,2z4 | 
[V:1] A2z2z4 | 
[V:2] c2d2z4 | 
[V:3] z4c2d2 | 
[V:4] z2G,2A,2F,2 | 
[V:1] z2c4d2 | 
[V:2] g4a2f2 | 
[V:3] B2c2F2B2 | 
[V:4] G,2C,2F,2D,2 | 
[V:1] B2c2F2G2- | 
[V:2] g2c4d2- | 
[V:3] G2A4B2- | 
[V:4] G,2F,3E,D,C, | 
[V:1] GFF4E2 | 
[V:2] dcBAc4 | 
[V:3] BAGFG4 | 
[V:4] D,4C,4 | 
[V:1] [M:3/1]F4z4z4 | 
[V:2] [M:3/1]z4F6G2 | 
[V:3] [M:3/1]F4z4F4- | 
[V:4] [M:3/1]F,6G,2A,2B,2 | 
[V:1] F6G2A2B2 | 
[V:2] A2B2c4F4 | 
[V:3] F2G2A2B2c4 | 
[V:4] C4F,4z4 | 
[V:1] c4F4B4 | 
[V:2] f8e4 | 
[V:3] F4c4B4 | 
[V:4] F,8G,4 | 
[V:1] A4B4G4 | 
[V:2] f4d8 | 
[V:3] c4B8 | 
[V:4] F,4G,8 | 
[V:1] A8G4 | 
[V:2] f8e4 | 
[V:3] c8c4 | 
[V:4] F,8C,4 | 
[V:1] G8z4 | 
[V:2] e8z4 | 
[V:3] c8z4 | 
[V:4] C,8z4 | 
[V:1] z12 | 
[V:2] z12 | 
[V:3] c2d2e2f2g4 | 
[V:4] A,8B,4 | 
[V:1] z12 | 
[V:2] z12 | 
[V:3] f6ede4 | 
[V:4] A,4G,2F,2G,4 | 
[V:1] A8B4 | 
[V:2] c2d2e2f2g4 | 
[V:3] f4z4z4 | 
[V:4] F,8z4 | 
[V:1] A4G2F2G4 | 
[V:2] f6ede4 | 
[V:3] z12 | 
[V:4] z12 | 
[V:1] F4A4G4 | 
[V:2] f4f4e4 | 
[V:3] c8c4 | 
[V:4] F,8C,4 | 
[V:1] A4z4A4 | 
[V:2] f4z4f4 | 
[V:3] c4z4c4 | 
[V:4] F,4z4F,4 | 
[V:1] G4A4A4- | 
[V:2] e4f4f4- | 
[V:3] c4c4c4- | 
[V:4] C,4F,4F,4- | 
[V:1] A4G4A4 | 
[V:2] f4e4f4 | 
[V:3] c4c4c4 | 
[V:4] F,4C,4F,4 | 
[V:1] z2c2d2e2f4 | 
[V:2] c2B2A2G2A2F2 | 
[V:3] f8f4 | 
[V:4] F,6E,2D,4 | 
[V:1] e4d6cB | 
[V:2] c4B2c2d2e2 | 
[V:3] g8f4 | 
[V:4] C,4G,4D,4 | 
[V:1] c6=BA=B4 | 
[V:2] f4g8 | 
[V:3] c4d8 | 
[V:4] A,4G,8 | 
[V:1] [M:2/1]c4G4 | 
[V:2] [M:2/1]e4z2c2- | 
[V:3] [M:2/1]c4z2e2- | 
[V:4] [M:2/1]C,4z2C,2- | 
[V:1] G4G4 | 
[V:2] c2B2c2e2 | 
[V:3] e2d2e2c2- | 
[V:4] C,2G,2C,4 | 
[V:1] G4G4 | 
[V:2] d4z2e2- | 
[V:3] c2=B2c4- | 
[V:4] G,4C,4 | 
[V:1] G8 | 
[V:2] e2dcd4 | 
[V:3] c2BAG4 | 
[V:4] z2C4B,2 | 
[V:1] G8 | 
[V:2] z2e4dc | 
[V:3] z2g4fe | 
[V:4] C4C,4 | 
[V:1] G4G4- | 
[V:2] dc=BA=B2cd | 
[V:3] fedcd2d2 | 
[V:4] G,4G,4 | 
[V:1] G4z2A2- | 
[V:2] e4z2f2- | 
[V:3] c4c4 | 
[V:4] C,4z2F,2- | 
[V:1] A2B2G2A2 | 
[V:2] f2d2e2c2 | 
[V:3] d2B2c2A2 | 
[V:4] F,2G,2E,2F,2 | 
[V:1] F2G2G2A2 | 
[V:2] d2B2c2A2 | 
[V:3] B2G2c2z2 | 
[V:4] D,2E,2C,2F,2 | 
[V:1] z2A4B2 | 
[V:2] z2f4d2 | 
[V:3] c4d2B2 | 
[V:4] z2F,4G,2 | 
[V:1] G2A2F2G2 | 
[V:2] e2c2d2B2 | 
[V:3] c2A2B2G2 | 
[V:4] E,2F,2D,2E,2 | 
[V:1] G2A2A2B2 | 
[V:2] _e2c2f2d2 | 
[V:3] c2A2d3c | 
[V:4] C,2F,2D,2G,2- | 
[V:1] G2c3BAG | 
[V:2] g3fedc2 | 
[V:3] BAGFc3B | 
[V:4] G,F,E,D,C,2F,2- | 
[V:1] A4d3c | 
[V:2] f3ed2g2- | 
[V:3] AGF2f2d2 | 
[V:4] F,E,D,C,B,,2B,2 | 
[V:1] BAG2c3B | 
[V:2] gfedc2f2- | 
[V:3] g3fedc2 | 
[V:4] G,2C3B,A,G, | 
[V:1] AGG4B2- | 
[V:2] fed2g3f | 
[V:3] d3cBAG2- | 
[V:4] F,2G,3F,E,D, | 
[V:1] BBAGFEG2- | 
[V:2] edc2d2e2 | 
[V:3] GFGAB2c2 | 
[V:4] C,2E,2D,2C,2 | 
[V:1] GFF4E2 | 
[V:2] cc2Bc4 | 
[V:3] A2F2G4 | 
[V:4] F,2D,2C,4 | 
[V:1] F8- | 
[V:2] A3Bc2d2- | 
[V:3] F4z2B2- | 
[V:4] z2F,4B,,2 | 
[V:1] F8- | 
[V:2] d2c2d4 | 
[V:3] B2A2B3c | 
[V:4] F,4B,,4 | 
[V:1] F8 |]  
[V:2] c8 |]  
[V:3] A8 |]  
[V:4] F,8 |]  



